X: 17974
T: Hugh Gillespie's
R: mazurka
M: 3/4
K: Gmajor
|:D>G B2 B2|G>B d2 d2|e>d c2 c>e|d>c B2 B2|
D>G B2 B2|G>B d2 d2|e>d c>B c>A|F>A G2 G2:|
|:B>d g2 g2|f>e d2 d2|e>d c2 c2|d>c B2 B2|
B>d g2 g2|(3gfe d2 d2|e>d c>B c>A|F>A G2 G2:|

